hyprcursor_themes/black/hyprcursors/help/help.svg

<svg width="75" height="75" version="1.1" viewBox="0 0 75 75" xmlns="http://www.w3.org/2000/svg"><defs><clipPath id="c"><path transform="translate(-133.9 -114)" d="m0 324h524v-324h-524z"/></clipPath><clipPath id="b"><path transform="translate(-137.3 -88.58)" d="m0 324h524v-324h-524z"/></clipPath><clipPath id="a"><path transform="translate(-142.7 -88)" d="m0 324h524v-324h-524z"/></clipPath></defs><g transform="matrix(.9716 0 0 .9716 -34.01 -.9716)" stroke="#fff"><path transform="matrix(1.333 0 0 -1.333 56.17 38.9)" d="m0 0 11.12 5e-3 -26 26 2e-3 -36.78 7.866 7.865c2.081 1.851 4.396 2.896 7.012 2.905" clip-path="url(#c)" fill-rule="evenodd" stroke-miterlimit="10" stroke-width="2"/><path transform="matrix(1.333 0 0 -1.333 60.73 72.8)" d="m-9.11e-4 0.1231 0.01391 0.6219c0.029 1.684 0.33 4.865 2.024 7.265 0.69 0.978 1.421 1.661 2.065 2.262 1.06 0.99 1.106 1.127 1.118 1.497 0.01392 1.193-1.619 0.9701-2.52 0.905-1.259-0.09093-3.461-0.637-4.132-0.861l-0.712-0.236-1.737 5.22 0.712 0.236c0.574 0.191 3.555 1.141 5.869 1.141 1.439 0 4.434 0 6.408-2.035 1.124-1.16 1.665-2.687 1.609-4.537-0.084-2.758-1.686-4.252-2.855-5.343-0.499-0.466-0.966-0.903-1.332-1.421-0.662-0.939-1.076-2.513-1.108-4.21l-0.00572-0.6593z" clip-path="url(#b)" stroke-width="1.505"/><path transform="matrix(1.333 0 0 -1.333 67.96 73.56)" d="m0 0c0 1.502-1.217 2.719-2.719 2.719s-2.719-1.217-2.719-2.719 1.217-2.719 2.719-2.719 2.719 1.217 2.719 2.719" clip-path="url(#a)" stroke-miterlimit="10" stroke-width="1.5"/></g></svg>

<?xml version="1.0" encoding="UTF-8" standalone="no"?>
<!-- Created with Inkscape (http://www.inkscape.org/) -->

<svg
   version="1.1"
   id="svg1"
   width="75"
   height="75"
   viewBox="0 0 75 75"
   xmlns="http://www.w3.org/2000/svg"
   xmlns:svg="http://www.w3.org/2000/svg">
  <defs
     id="defs1">
    <clipPath
       clipPathUnits="userSpaceOnUse"
       id="clipPath71-1">
      <path
         d="M 0,324 H 524 V 0 H 0 Z"
         transform="translate(-133.8805,-114.0009)"
         id="path71-2" />
    </clipPath>
    <clipPath
       clipPathUnits="userSpaceOnUse"
       id="clipPath73-7">
      <path
         d="M 0,324 H 524 V 0 H 0 Z"
         transform="translate(-137.30031,-88.576202)"
         id="path73-0" />
    </clipPath>
    <clipPath
       clipPathUnits="userSpaceOnUse"
       id="clipPath77-6">
      <path
         d="M 0,324 H 524 V 0 H 0 Z"
         transform="translate(-142.71891,-88)"
         id="path77-0" />
    </clipPath>
  </defs>
  <g
     id="layer1"
     transform="matrix(0.9716294,0,0,0.9716294,-34.007031,-0.97162791)">
    <path
       id="path70"
       d="m 0,0 11.12,0.005 -26,26.003 0.002,-36.778 7.866,7.865 C -4.931,-1.054 -2.616,-0.009 0,0"
       style="display:inline;fill:#000000;fill-opacity:1;fill-rule:evenodd;stroke:#ffffff;stroke-width:2;stroke-linecap:butt;stroke-linejoin:miter;stroke-miterlimit:10;stroke-dasharray:none;stroke-opacity:1"
       transform="matrix(1.3333333,0,0,-1.3333333,56.17351,38.89672)"
       clip-path="url(#clipPath71-1)" />
    <path
       id="path72"
       d="M -9.1103993e-4,0.12305372 0.013,0.745 c 0.029,1.684 0.33,4.865 2.024,7.265 0.69,0.978 1.421,1.661 2.065,2.262 1.06,0.99 1.106,1.127 1.118,1.497 0.013917,1.193129 -1.6192036,0.970071 -2.52,0.905 -1.2587202,-0.09093 -3.461,-0.637 -4.132,-0.861 l -0.712,-0.236 -1.737,5.22 0.712,0.236 c 0.574,0.191 3.555,1.141 5.869,1.141 1.439,0 4.434,0 6.408,-2.035 1.124,-1.16 1.665,-2.687 1.609,-4.537 C 10.633,8.844 9.031,7.35 7.862,6.259 7.363,5.793 6.896,5.356 6.53,4.838 5.868,3.899 5.454,2.325 5.422,0.628 L 5.41628,-0.03132613 Z"
       style="display:inline;fill:#000000;fill-opacity:1;fill-rule:nonzero;stroke:#ffffff;stroke-width:1.5052;stroke-dasharray:none;stroke-opacity:1"
       transform="matrix(1.3333333,0,0,-1.3333333,60.73325,72.79632)"
       clip-path="url(#clipPath73-7)" />
    <path
       id="path76"
       d="m 0,0 c 0,1.502 -1.217,2.719 -2.719,2.719 -1.502,0 -2.719,-1.217 -2.719,-2.719 0,-1.502 1.217,-2.719 2.719,-2.719 C -1.217,-2.719 0,-1.502 0,0"
       style="display:inline;fill:#000000;fill-opacity:1;fill-rule:nonzero;stroke:#ffffff;stroke-width:1.5;stroke-linecap:butt;stroke-linejoin:miter;stroke-miterlimit:10;stroke-dasharray:none;stroke-opacity:1"
       transform="matrix(1.3333333,0,0,-1.3333333,67.95805,73.56459)"
       clip-path="url(#clipPath77-6)" />
  </g>
</svg>
